public/icons/svg/shop.svg

<svg fill="none" height="18" viewBox="0 0 20 18" width="20" xmlns="http://www.w3.org/2000/svg"><path d="m19.75 6c.0004-.06973-.0091-.13917-.0281-.20625l-1.3453-4.70625c-.0905-.312268-.2795-.586909-.5388-.782912-.2594-.196003-.5752-.30285087-.9003-.304588h-13.875c-.32509.00173713-.6409.108585-.90027.304588-.25936.196003-.44837.470644-.53879.782912l-1.344377 4.70625c-.019367.06704-.029151.13647-.029062.20625v1.5c0 .58217.135544 1.15634.395898 1.67705.260353.52071.638371.97365 1.104101 1.32295v6c0 .3978.15804.7794.43934 1.0607s.66284.4393 1.06066.4393h13.5c.3978 0 .7794-.158 1.0607-.4393s.4393-.6629.4393-1.0607v-6c.4657-.3493.8437-.80224 1.1041-1.32295s.3959-1.09488.3959-1.67705zm-16.6875-4.5h13.875l1.0706 3.75h-16.01341zm4.6875 5.25h4.5v.75c0 .59674-.2371 1.16903-.659 1.59099-.422.42196-.9943.65901-1.591.65901-.59674 0-1.16903-.23705-1.59099-.65901s-.65901-.99425-.65901-1.59099zm-1.5 0v.75c0 .59674-.23705 1.16903-.65901 1.59099s-.99425.65901-1.59099.65901-1.16903-.23705-1.59099-.65901-.65901-.99425-.65901-1.59099v-.75zm10.5 9.75h-13.5v-5.325c.2469.0498.49813.0749.75.075.58217 0 1.15634-.1355 1.67705-.3959s.97365-.6384 1.32295-1.1041c.3493.4657.80224.8437 1.32295 1.1041s1.09488.3959 1.67705.3959c.5822 0 1.1563-.1355 1.6771-.3959.5207-.2604.9736-.6384 1.3229-1.1041.3493.4657.8022.8437 1.3229 1.1041.5208.2604 1.0949.3959 1.6771.3959.2519-.0001.5031-.0252.75-.075zm-.75-6.75c-.5967 0-1.169-.23705-1.591-.65901-.4219-.42196-.659-.99425-.659-1.59099v-.75h4.5v.75c0 .59674-.2371 1.16903-.659 1.59099-.422.42196-.9943.65901-1.591.65901z" fill="#f26a4b"/></svg>

<svg width="20" height="18" viewBox="0 0 20 18" fill="none" xmlns="http://www.w3.org/2000/svg">
<path d="M19.75 6C19.7504 5.93027 19.7409 5.86083 19.7219 5.79375L18.3766 1.0875C18.2861 0.775232 18.0971 0.500591 17.8378 0.304588C17.5784 0.108585 17.2626 0.00173713 16.9375 0H3.0625C2.73741 0.00173713 2.4216 0.108585 2.16223 0.304588C1.90287 0.500591 1.71386 0.775232 1.62344 1.0875L0.279063 5.79375C0.259696 5.86079 0.249912 5.93022 0.250001 6V7.5C0.250001 8.08217 0.385545 8.65634 0.645899 9.17705C0.906252 9.69776 1.28427 10.1507 1.75 10.5V16.5C1.75 16.8978 1.90804 17.2794 2.18934 17.5607C2.47064 17.842 2.85218 18 3.25 18H16.75C17.1478 18 17.5294 17.842 17.8107 17.5607C18.092 17.2794 18.25 16.8978 18.25 16.5V10.5C18.7157 10.1507 19.0937 9.69776 19.3541 9.17705C19.6145 8.65634 19.75 8.08217 19.75 7.5V6ZM3.0625 1.5H16.9375L18.0081 5.25H1.99469L3.0625 1.5ZM7.75 6.75H12.25V7.5C12.25 8.09674 12.0129 8.66903 11.591 9.09099C11.169 9.51295 10.5967 9.75 10 9.75C9.40326 9.75 8.83097 9.51295 8.40901 9.09099C7.98705 8.66903 7.75 8.09674 7.75 7.5V6.75ZM6.25 6.75V7.5C6.25 8.09674 6.01295 8.66903 5.59099 9.09099C5.16903 9.51295 4.59674 9.75 4 9.75C3.40326 9.75 2.83097 9.51295 2.40901 9.09099C1.98705 8.66903 1.75 8.09674 1.75 7.5V6.75H6.25ZM16.75 16.5H3.25V11.175C3.4969 11.2248 3.74813 11.2499 4 11.25C4.58217 11.25 5.15634 11.1145 5.67705 10.8541C6.19776 10.5937 6.6507 10.2157 7 9.75C7.3493 10.2157 7.80224 10.5937 8.32295 10.8541C8.84366 11.1145 9.41783 11.25 10 11.25C10.5822 11.25 11.1563 11.1145 11.6771 10.8541C12.1978 10.5937 12.6507 10.2157 13 9.75C13.3493 10.2157 13.8022 10.5937 14.3229 10.8541C14.8437 11.1145 15.4178 11.25 16 11.25C16.2519 11.2499 16.5031 11.2248 16.75 11.175V16.5ZM16 9.75C15.4033 9.75 14.831 9.51295 14.409 9.09099C13.9871 8.66903 13.75 8.09674 13.75 7.5V6.75H18.25V7.5C18.25 8.09674 18.0129 8.66903 17.591 9.09099C17.169 9.51295 16.5967 9.75 16 9.75Z" fill="#F26A4B"/>
</svg>
